X:1
T:Beautiful Story
T:Beautiful Story
T:Joseph Lincoln Hall
T:Irvin H. Mack, 1900
T:Public Domain Courtesy of the Cyber Hymnal™
T:Public Domain Courtesy of the Cyber Hymnal™
C:Joseph Lincoln Hall
Z:Public Domain
Z:Courtesy of the Cyber Hymnal™
%%score ( 1 2 ) ( 3 4 )
L:1/8
Q:1/4=100
M:4/4
K:C
V:1 treble 
V:2 treble 
V:3 bass 
V:4 bass 
V:1
 c2 B>A G2 E2 | [FA]2 [EG]>[DF] [CE]4 | c2 B>A [Gd]2 [GB]2 | [^FA]2 [FB]>[FA] G4 | %4
w: 1.~Je- sus is vic- tor,|Je- sus is King;|Let men and an- gels,|praise to Him sing.|
w: 2.~Bright was the morn- ing|when o’er the earth,|Mu- sic pro- claim- ing,|told of His birth;|
w: 3.~Mon- arch of ag- es,|rul- er of all;|Vic- tor for man- kind|lost in the fall.|
 [Fd]2 [Fe]>[FB] [Ec]2 [Ec]2 | [DB]2 [Dc]>[D^G] [DB]2 [CA]2 | [_Ec]2 [EB]>[EA] [=EG]2 [Ec]>[Fd] | %7
w: Hail ev- ery na- tion,|hail all cre- a- tion,|“Peace un- to earth and good|
w: Won- drous the sto- ry,|tell- ing His glo- ry,|Je- sus the Son un- to|
w: Now with o- bla- tion,|glad a- do- ra- tion,|Je- sus our Lord, is the|
 [Ge]2 [Fd]2 [Ec]4 || %8
w: will to men.”|
w: men has come.|
w: name a- dored.|
"^Refrain"[Q:1/4=65] (3:2:1(z (3z [B,D][B,D]) (3:2:2z [A,^C] z4/3 (3:2:2[A,C][A,C]) x65/24 | %9
w: |
w: |
w: |
 (3:2:1z (3:2:1z (3:2:1z (3z [B,D][B,D] z8 | %10
w: |
w: |
w: |
 (3z [CE][CE] (3(z [DE][DE]) (3(z [CE][CE]) (3(z [CE][CE]) | %11
w: |
w: |
w: |
!ff! (3z [D^F][DF] (3(z [DF][DF]) (3(z [=FG][FG]) (3(z [FG])[FG] | %12
w: |
w: * * * * * * * Ra-|
w: |
 (3z [EG][EG] (3(z [E^G][EG]) (3(z [EG][EG]) (3(z [EA][EA]) | %13
w: |
w: |
w: |
 (3z [D^F][DF] (3(z [DF][DF]) (3(z [D=F][DF]) (3(z [DF])[DF] | %14
w: |
w: * * * * * * * diance|
w: |
 (3z [CE][CE] (3(z [DE][DE]) (3(z [CE])[CE] !fermata![_EAc]2 | %15
w: |
w: * * * * * beam- ing,|
w: |
 (3z [EG][EG] (3(z [FG][FG]) (3(z [CE][CF]) [CE]2 |] %16
w: |
w: * * * * * * bright-|
w: |
V:2
 c2 B>A G2 E2 | x8 | c2 B>A x4 | x4 G4 | x8 | x8 | x8 | x8 || (E2 (3:2:2^CC) E2 E2 A2 | %9
 (E2 (3:2:2CC) D2 (3:2:1C x2/3 (D2 (3:2:2B,B,) G2 | G2 ^G2 B2 B2 | A2 B2 e2 d2 | e2 d2 d2 c2 | %13
 d2 A2 A2 G2 | G2 ^G2 B2 x2 | e2 d2 c4 |] %16
V:3
 C2 B,>A, G,2 E,2 | [G,B,]2 [G,B,]>[G,B,] [C,G,]4 | C2 B,>A, [D,B,]2 [D,D]2 | %3
 [D,C]2 [D,D]>[D,C] [G,B,]4 | [G,B,]2 [G,B,]>[G,B,] [C,G,]2 [C,G,]2 | %5
 [E,^G,]2 [E,G,]>[E,G,] [A,,A,]2 [A,,A,]2 | [^F,A,]2 [F,C]>[F,C] [G,C]2 [G,C]>[G,C] | %7
 [G,C]2 [G,B,]2 [C,C]4 || (3(z G,G,) (3(z ^G,G,) (3(z G,G,) (3(z G,G,) x11/8 | %9
 (3z [^F,A,][F,A,] (3(z [F,A,][F,A,]) (3(z [D,G,][D,G,]) (3(z [D,G,][D,G,]) x4 | %10
 (3z G,G, (3(z [^G,B,][G,B,]) (3(z [E,A,][E,A,]) (3(z [E,A,][E,A,]) | %11
 (3z [F,A,C][F,A,C] (3(z [F,A,C][F,A,C]) (3(z B,B,) (3(z B,)B, | %12
 (3z [G,C][G,C] (3(z [^G,B,][G,B,]) (3(z [G,B,][G,B,]) (3(z CC) | %13
 (3z [A,C][A,C] (3(z [A,C][A,C]) (3(z B,B,) (3(z B,)B, | %14
 (3z G,G, (3(z [^G,B,][G,B,]) (3(z [E,A,])[E,A,] !fermata![^F,A,C]2 | %15
 (3z CC (3(z B,B,) (3(z G,A,) G,2 |] %16
V:4
 C2 B,>A, G,2 E,2 | x8 | C2 B,>A, x4 | x8 | x8 | x8 | x8 | x8 || C,2 B,,2 A,,2 A,,2 x11/8 | %9
 D,2 D,2 G,,2 G,,2 x4 | B,,2 B,,2 A,,2 A,,2 | D,2 D,2 G,2 G,2 | C,2 E,2 E,2 A,2 | D,2 F,2 G,2 G,2 | %14
 C,2 B,,2 A,,2 x2 | G,2 G,2 C,4 |] %16

